X: 54
T:Old French
S:via PR
M:4/4
L:1/4
Q:300
K:D
(3A/2B/2c/2|"D"dc/2d/2 B/2d/2A/2F/2|D/2F/2A/2d/2 fe/2d/2|\
"A"c/2d/2e/2f/2 g/2e/2c/2e/2|"D"d/2e/2f/2d/2 "A"A(3A/2B/2c/2|
"D"dc/2d/2 B/2d/2A/2F/2|"D"D/2F/2A/2d/2 fe/2d/2|\
"A"c/2d/2e/2f/2 "A7"g/2e/2c/2e/2|"D"df d::
c/2d/2|"A"e/2f/2e/2d/2 cA|A/2E/2A/2c/2 ed/2c/2|"G"B/2=G/2B/2d/2 g/2f/2e/
2d/2|\
"A"c/2A/2c/2e/2 ac/2d/2|
"A"e/2f/2e/2d/2 cA|A/2E/2A/2c/2 ed/2c/2|"G"B/2=G/2B/2d/2 g/2f/2e/2d/2|"A
"cA A\
:|

